icons/yaml.svg

<?xml version="1.0" encoding="UTF-8"?>
<!DOCTYPE svg PUBLIC "-//W3C//DTD SVG 1.1//EN" "http://www.w3.org/Graphics/SVG/1.1/DTD/svg11.dtd">
<!-- Creator: CorelDRAW 2021 (64-Bit) -->
<svg xmlns="http://www.w3.org/2000/svg" xml:space="preserve" width="67.8339mm" height="70.2233mm" version="1.1" style="shape-rendering:geometricPrecision; text-rendering:geometricPrecision; image-rendering:optimizeQuality; fill-rule:evenodd; clip-rule:evenodd"
viewBox="0 0 183.97 190.45"
 xmlns:xlink="http://www.w3.org/1999/xlink"
 xmlns:xodm="http://www.corel.com/coreldraw/odm/2003">
 <defs>
  <style type="text/css">
   <![CDATA[
    .fil0 {fill:#DA1F24}
   ]]>
  </style>
 </defs>
 <g id="Layer_x0020_1">
  <metadata id="CorelCorpID_0Corel-Layer"/>
  <path class="fil0" d="M-0 79.56l36.36 0 0 -38.16 37.8 0 0 -41.4 37.08 0 0 41.4 36.36 0 0 38.16 36.36 0 0 34.92 -36.36 0 0 35.64 -36.36 0 0 40.32 -37.08 0 0 -40.32 -37.8 0 0 -35.64 -36.36 0 0 -34.92zm125.64 4.68l-19.8 0 0 -25.92 -27.36 0 0 25.92 -24.48 0 0 24.48 24.48 0 0 24.48 27.36 0 0 -24.48 19.8 0 0 -24.48z"/>
 </g>
</svg>

<svg xmlns="http://www.w3.org/2000/svg" xml:space="preserve" width="256.38" height="265.411" style="shape-rendering:geometricPrecision;text-rendering:geometricPrecision;image-rendering:optimizeQuality;fill-rule:evenodd;clip-rule:evenodd" viewBox="0 0 183.97 190.45"><path d="M0 79.56h36.36V41.4h37.8V0h37.08v41.4h36.36v38.16h36.36v34.92H147.6v35.64h-36.36v40.32H74.16v-40.32h-37.8v-35.64H0zm125.64 4.68h-19.8V58.32H78.48v25.92H54v24.48h24.48v24.48h27.36v-24.48h19.8z" style="fill:#da1f24"/></svg>
